X:1
T:James Gibb editions
T:Now, on land and sea descending - Barnby
%%score [ ( 1 2 ) ( 3 4 ) ]
L:1/8
Q:1/4=84
M:4/4
K:G
V:1 treble nm="Midi_74"
V:2 treble 
V:3 bass nm="Midi_74"
V:4 bass 
V:1
"^Samuel Longfellow\n(1819-92)""^87. 87. D""^Now, on land and sea descending""^Joseph Barnby\n(1838-96)"!p! B2 A2 B2 d2 | %1
 c2 A2 G2 F2 || G2 E2 D2 B2 | A2 G2 A4 || B2!<(! A2 B2 d2!<)! |!>(! c2 A2 G2!>)! F2 || %6
!p! G2 E2 D2 B2 | A3 G G4 ||[M:4/4] A3 B"^cresc." B2 A2 | A2 d2 ^c2 B2 || A3 B A2 d2 | %11
!f! (d2 e2) d4 ||!mf! B2 A2 B2 d2 | c2 A2 G2 F2 || G2 E2"^rit." D2 B2 | A3 G G4 || G4 G4 |] %17
V:2
 G2 A2 G2 D2 | E2 E2 D2 D2 || B,2 C2 D2 D2 | ^C2 C2 D4 || D2 D2 D2 GF | E2 E2 D2 C2 || %6
 B,2 C2 C2 B,2 | C2 C2 B,4 ||[M:4/4] ^C2 C2 D2 E2 | D2 D2 E2 D2 || ^C2 G2 F2 ^G2 | (A2 G2) F4 || %12
 G2 F2 G2 =F2 | E2 E2 D2 C2 || B,2 A,2 B,2 G2 | (G2 F)G G4 || E4 D4 |] %17
V:3
!p! D2 D2 D2 G,2 | G,2 C2 B,2 A,2 || G,2 G,2 A,2 G,2 | G,2 A,2 F,4 || G,2 F,2 G,2 G,2 | %5
 G,2 C2 B,2 A,2 ||!p! G,2 G,2 A,2 G,2 | G,2 F,2 G,4 || %8
[M:4/4]"^1 Now, on land and sea descending, \nbrings the night its peace profound.\nLet our vesper hymn be blending \nwith the holy calm around. \nJubilate! Jubilate! \nJubilate! Amen! \nLet our vesper hymn be blending \nwith the holy calm around. \n\n2 Soon as dies the sunset glory, \nstars of heaven shine out above, \ntelling still the ancient story, \ntheir creator's changeless love. \nJubilate! Jubilate! \nJubilate! Amen! \nTelling still the ancient story:\ntheir creator's changeless love." G,2 G,2 G,2 G,2 | %9
 F,2 A,2 ^A,2 B,2 || ^C2"^cresc." E2 F2 D2 |!f! (F2 ^C2) D4 || %12
!mf!"^3 Now our wants and burdens leaving \nto our God who cares for all,\ncease we fearing, cease we grieving; \ntouched by God our burdens fall. \nJubilate! Jubilate! \nJubilate! Amen! \nCease we fearing, cease we grieving; \ntouched by God our burdens fall. \n\n4 As the darkness deepens o'er us, \nlo! eternal stars arise;\nhope and faith and love rise glorious, \nshining in the Spirit's skies. \nJubilate! Jubilate! \nJubilate! Amen! \nHope and faith and love rise glorious, \nshining in the Spirit's skies." D2 D2 D2 G,2 | %13
 G,2 C2 B,2 A,2 || G,2 G,2 G,2 D2 | C3 B, B,4 || C4 B,4 |] %17
V:4
 G,2 F,2 G,2 B,,2 | C,2 C,2 D,2 D,2 || E,2 C,2 F,2 G,2 | E,2 A,,2 D,4 || G,2 D,2 G,2 B,,2 | %5
 C,2 C,2 D,2 D,2 || E,2 C,2 F,2 G,2 | D,2 D,2 G,4 ||[M:4/4] E,2 A,,2 B,,2 ^C,2 | %9
 D,2- F,2 G,2 G,2 || A,2 ^C,2 D,2 B,2 | A,4 D,4 || G,2 D,2 G,2 B,,2 | C,2 C,2 D,2 ^D,2 || %14
 E,2 ^C,2 D,2 D,2 | D,3 G,, G,,4 || C,4 G,,4 |] %17

